X:1
T:Thus saith my Cloris bright - Wilbye
T:#
%%score [ 1 2 3 4 ]
L:1/8
Q:1/4=120
M:4/4
K:Bb
V:1 treble nm="Soprano" snm="S"
V:2 treble nm="Alto" snm="A"
V:3 treble-8 nm="Tenor" snm="T"
V:4 bass nm="Bass" snm="B"
V:1
"^Thus Saith My Cloris Bright" z8 | z8 | z8 |"^John Wilbye\n (1574-1638)" z8 | z8 | z8 | z8 | %7
w: |||||||
!mf! d4 d2 d2 | c3 d c2 c2 | B2 G2 B2 B2 | A4 A4 | G4 G4 | c4 c4 | z2 c2 B2 c2 | d4 d4 | z8 | %16
w: Thus saith my|Clo- ris bright, When|we of love sit|down and|talk to-|ge- ther,|and talk to-|ge- ther,||
!p! d4 d2 d2 | c3 d c2 c2 | B2 G2 B2 B2 | A4 G2 G2- ||[M:3/2] G2 (^F=E) F4 G2!f! B2 || %21
w: thus saith my|Clo- ris bright, when|we of love sit|down and talk|* to\- * ge- ther: 'Be-|
[M:3/4] d3 c B2 | A4 B2 ||[M:4/4] A3 B c2 d2 | c2 B2 B2 A2 | B4 z4 |[M:4/4] z8 | z2!f! d2 f2 e2 | %28
w: ware of Love,|dear, Love|is a walk- ing|sprite, a walk- ing|sprite,||And Love is|
 d2 c2 d4 |!p! B8 | c4 d4 | e4 e4 | d8 | B4 c4- | c4 B4 | A4 A4 | =B6!f! d2 | d3 c B2 A2 | %38
w: this and that,|And|O I|wot not|what,|and O|* I|wot not|what, and|comes and goes a-|
 G2!p! A2 D2 G2- | G2 ^F2 G2!f! d2 | d3 c B2 A2 | G2!p! A2 D2 G2- | G2 ^F2 G4 | z2!f! A2 c2 B2 | %44
w: gain, I wot not|* whi- ther, and|comes and goes a-|gain, I wot not|* whi- ther.'|No, no, these|
 A2 G2 F2 A2 | d2 d2 c4 | B2 f2 f3 e | d2 B2 B2 A2 | B2 G2 (B3 c) | d8- | d4 z2 d2- | dd c2 d4 | %52
w: are but bugs to|breed a- maz-|ing, No, no, these|are but bugs to|breed a- maz\- *|ing,|* For|* in her eyes|
 z2[Q:1/4=119] G2[Q:1/4=117] G2[Q:1/4=115] A2 | %53
w: I saw his|
[Q:1/4=113] ^F2[Q:1/4=112] G2[Q:1/4=110] (G2[Q:1/4=108] F2) |[Q:1/4=108] G16 |] %55
w: torch- light blaz\- *|ing.|
V:2
 z8 | z8 | z8 | z8 |!mf! G4 G2 G2 | F3 G F2 F2 | E2 C2 E2 E2 | D4 F4 | F4 A4 | (G6 F2) | F8 | %11
w: ||||Thus saith my|Clo- ris bright, When|we of love sit|down and|talk to-|ge\- *|ther,|
 z2 D2 D2 E2 | F4 F4 | G4 G2 G2 | F3 G F2 F2 | E2 C2 E2 E2 | D4!p! D4 | F4 A4 | G8 | %19
w: and talk to-|ge- ther,|thus saith my|Clo- ris bright, when|we of love sit|down and|talk to-|ge-|
 ^F2 D2 B,2 C2 ||[M:3/2] D8 D4 ||[M:3/4] z4 B,2 | D3 C B,2 ||[M:4/4] C6 B,2 | A,2 D2 C2 C2 | %25
w: ther, and talk to-|ge- ther:|'Be-|ware of Love,|dear, Love|is a walk- ing|
 D2 F2 D2 C2 |[M:4/4] B,2 A,2 B,4 | z2 D2 D2 E2 | F2 F2 F4 |!p! G4 G4- | G4 B4 | B4 A4 | B8 | %33
w: sprite, And Love is|this and that,|And Love is|this and that,|And O|* I|wot not|what,|
 G2 G4 A2 | ^F4 (G4- | G4 ^F4) | G6!f! G2 | =F2 F2 G2 D2 | D2!p! ^F2 G2 E2 | D4 D2!f! D2 | %40
w: and O I|wot not||what, and|comes and goes a-|gain, I wot not|whi- ther, and|
 D2 D2 G2 D2 | D2!p! ^F2 G2 E2 | D4 D4 | z2!f! F2 =E2 D2 | C2 B,2 A,2 A,2 | B,2 B,2 (B,2 A,2) | %46
w: comes and goes a-|gain, I wot not|whi- ther.'|No, no, these|are but bugs to|breed a- maz\- *|
 B,4 z4 | z2 F2 F3 E | D2 B,2 D2 =E2 | ^F2 G4 F2 | G4 z4 | z2 G3 G ^F2 | G3 =F E2 E2 | D4 D2 D2 | %54
w: ing,|No, no, these|are but bugs to|breed a- maz-|ing,|For in her|eyes I saw his|torch- light blaz-|
 D16 |] %55
w: ing.|
V:3
!mf!{[Fg]} d4 d2 d2 | c3 d c2 c2 | B2 G2 B2 B2 | A3 B A2 A2 | G8 | d8 | z2 G2 G2 A2 | B8 | A4 z4 | %9
w: Thus saith my|Clo- ris bright, When|we of love sit|down and talk to-|ge-|ther,|and talk to-|ge-|ther,|
 d4 d2 d2 | c3 d c2 c2 | B2 G2 B2 B2 | A3 B A2 A2 | G8 | A4 B4 | G6 A2 |!p! B4 B4 | A2 F2 f3 e | %18
w: Thus saith my|Clo- ris bright, When|we of love sit|down and talk to-|ge-|ther, thus|saith my|Clo- ris|bright, When we of|
 d3 c B2 d2 | d4 G4 ||[M:3/2] A8 G2!f! g2 ||[M:3/4][K:treble-8] d4 d2 | f3 e d2 ||[M:4/4] f6 f2 | %24
w: love sit down and|talk to-|ge- ther: 'Be-|ware, be-|ware of Love,|dear, Love|
 f2 f2 g2 f2 | f2 d2 f2 e2 |[M:4/4][K:treble-8] d2 c2 d4 | f4 d2 c2 | B2 A2 B4 |!p! B4 e4- | %30
w: is a walk- ing|sprite, And Love is|this and that,|And Love is|this and that,|And O|
 e4 f4 | e4 c4 | f4 f4 | e4 e4 | d8- | d4 d4 | d6 z2 | z2!f! d2 d3 c | B2!p! A2 B2 c2 | %39
w: * I|wot not|what, and|O I|wot|* not|what,|and comes and|goes a- gain, I|
 =B2 A2 _B2 G2- | G2!f! d2 d3 c | B2!p! A2 B2 c2 | =B2 A2 _B2 G2 | z8 | z8 | z2!f! f2 f3 e | %46
w: wot not whi- ther,|* and comes and|goes a- gain, I|wot not whi- ther.'|||No, no, these|
 d2 B2 c2 c2 | B2 d2 c4 | B6 G2 | A2 B2 A4 | G2 B3 B A2 | B2 G2 d4 | B4 c4- | c2 B2 A4 | =B16 |] %55
w: are but bugs to|breed a- maz-|ing, to|breed a- maz-|ing, For in her|eyes I saw|his torch\-|* light blaz-|ing.|
V:4
 z8 | z8 |!mf! G,4 G,2 G,2 | F,3 G, F,2 F,2 | E,2 C,2 E,2 E,2 | D,4 B,,4 | C,4 C,4 | B,,8 | %8
w: ||Thus saith my|Clo- ris bright, When|we of love sit|down and|talk to-|ge-|
 F,4 F,4 | G,6 B,2 | F,4 F,4 | G,4 G,2 G,2 | F,3 G, F,2 F,2 | E,2 C,2 E,2 E,2 | D,4 B,,4 | C,8 | %16
w: ther, and|talk to\-|ge- ther,|thus saith my|Clo- ris bright, When|we of love sit|down and|talk|
!p! B,,8 | F,4 F,4 | G,8 | D,4 E,4 ||[M:3/2] D,8 G,2!f! G,2 ||[M:3/4] B,3 A, G,2 | D,4 G,2 || %23
w: to-|ge- ther,|and|talk to-|ge- ther: 'Be-|ware of Love,|dear, Love|
[M:4/4] F,3 G, A,2 B,2 | F,2 D,2 E,2 F,2 | B,2 B,,2 B,,2 C,2 |[M:4/4] D,2 F,2 B,,4 | %27
w: is a walk- ing|sprite, a walk- ing|sprite, And Love is|this and that,|
 z2 B,,2 B,,2 C,2 | D,2 F,2 B,,4 |!p! E,4 E,4- | E,4 D,4 | C,4 C,4 | B,,4 B,,4 | E,4 C,4 | D,8- | %35
w: And Love is|this and that,|And O|* I|wot not|what, and|O I|wot|
 D,4 D,4 | G,6!f! G,2 | B,3 A, G,2 ^F,2 | G,2!p! D,2 G,2 C,2 | D,4 G,2!f! G,2 | B,3 A, G,2 ^F,2 | %41
w: * not|what, and|comes and goes a-|gain, I wot not|whi- ther, and|comes and goes a-|
 G,2!p! D,2 G,2 C,2 | D,4 G,4 | z2!f! D2 A,2 B,2 | F,2 G,2 D,3 C, | (B,,C,) (D,E,) F,4 | %46
w: gain, I wot not|whi- ther.'|No, no, these|are but bugs to|breed * a\- * maz-|
 B,,6 A,,2 | B,,4 F,4 | G,8 | D,8 | z2 G,3 G, ^F,2 | G,2 E,2 D,2 D,2 | E,4 C,4 | D,8 | G,16 |] %55
w: ing, to|breed a-|maz-|ing,|For in her|eyes I saw his|torch- light|blaz-|ing.|

